barfriends-site/frontend/static/images/Logo.svg

<svg height="331" viewBox="0 0 331 331" width="331" xmlns="http://www.w3.org/2000/svg"><g fill="none" fill-rule="evenodd"><rect fill="#000" height="331" rx="50" width="331"/><g fill="#f87000" transform="translate(48 85)"><g transform="translate(65.398887)"><path d="m21.2447799 74.5534694c13.4411052 0 21.2447798-16.7666835 21.2447798-37.3360341s-7.9259569-37.18154213-21.2447798-37.21737585c-13.31882298-.03583372-21.2447799 16.13125185-21.2447799 37.21737585s7.80367463 37.3360341 21.2447799 37.3360341z"/><path d="m82.0094191 74.5534694c13.4411052 0 21.2447799-16.7666835 21.2447799-37.3360341s-7.925957-37.18154213-21.2447799-37.21737585c-13.318823-.03583372-21.2447799 16.13125185-21.2447799 37.21737585s7.8036746 37.3360341 21.2447799 37.3360341z" transform="matrix(-1 0 0 1 164.018838 0)"/></g><path d="m6.06929891 85.3046422c.81950803-1.7404776 2.81534707-6.066338 9.03978129-6.1696968 1.070077-.0426028 2.5399763.2569606 4.1229168.9586242 9.7045241 6.0443609 48.0245061 31.0260314 100.731413 29.5880184 7.509373.064243 51.652715-.348726 94.634609-28.8882812 2.586477-1.7051204 4.80488-1.8295062 6.825413-1.5550026 3.422622.6418009 5.936153 2.4803324 7.38918 5.8837949 2.385426 7.2662909 4.020796 16.7097989 6.147318 22.9985439.239616.739092-.609879 2.253326-2.160936 1.423425-1.858787-1.530568-9.644001-12.0069435-11.087318-13.9396256-1.112413-1.3356781-2.499585-.9655984-3.061192-.5471947-9.608605 14.1916493-34.260629 64.1998733-100.96109 64.9427523-68.2792694-.913579-92.0918536-51.879357-101.3378135-64.9427523-.5700613-.3838826-2.0318906-.9172876-3.2763801.8081272-3.50933003 4.6972861-9.11785559 12.1584351-10.87383867 13.6786931-1.07379192.610774-2.38760168 0-2.17940126-1.385338.89352531-2.828009 3.34962141-13.4647614 6.04733844-22.8540878z" transform="matrix(-1 0 0 1 235 0)"/></g></g></svg>

<?xml version="1.0" encoding="UTF-8"?>
<svg width="331px" height="331px" viewBox="0 0 331 331" version="1.1" xmlns="http://www.w3.org/2000/svg" xmlns:xlink="http://www.w3.org/1999/xlink">
    <!-- Generator: Sketch 52.6 (67491) - http://www.bohemiancoding.com/sketch -->
    <title>Logo</title>
    <desc>Created with Sketch.</desc>
    <g id="Logo" stroke="none" stroke-width="1" fill="none" fill-rule="evenodd">
        <g id="Group">
            <rect id="Rectangle" fill="#000000" x="0" y="0" width="331" height="331" rx="50"></rect>
            <g id="smile" transform="translate(48.000000, 85.000000)" fill="#F87000">
                <g id="eyes" transform="translate(65.398887, 0.000000)">
                    <path d="M21.2447799,74.5534694 C34.6858851,74.5534694 42.4895597,57.7867859 42.4895597,37.2174353 C42.4895597,16.6480847 34.5636028,0.0358931722 21.2447799,5.94515707e-05 C7.92595692,-0.0357742691 0,16.1313113 0,37.2174353 C7.3585456e-16,58.3035593 7.80367463,74.5534694 21.2447799,74.5534694 Z" id="Oval-3-Copy-6"></path>
                    <path d="M82.0094191,74.5534694 C95.4505243,74.5534694 103.254199,57.7867859 103.254199,37.2174353 C103.254199,16.6480847 95.328242,0.0358931722 82.0094191,5.94515707e-05 C68.6905961,-0.0357742691 60.7646392,16.1313113 60.7646392,37.2174353 C60.7646392,58.3035593 68.5683138,74.5534694 82.0094191,74.5534694 Z" id="Oval-3-Copy-7" transform="translate(82.009419, 37.276735) scale(-1, 1) translate(-82.009419, -37.276735) "></path>
                </g>
                <path d="M6.06929891,85.3046422 C6.88880694,83.5641646 8.88464598,79.2383042 15.1090802,79.1349454 C16.1791572,79.0923426 17.6490565,79.391906 19.231997,80.0935696 C28.9365211,86.1379305 67.2565031,111.119601 119.96341,109.681588 C127.472783,109.745831 171.616125,109.332862 214.598019,80.7933068 C217.184496,79.0881864 219.402899,78.9638006 221.423432,79.2383042 C224.846054,79.8801051 227.359585,81.7186366 228.812612,85.1220991 C231.198038,92.38839 232.833408,101.831898 234.95993,108.120643 C235.199546,108.859735 234.350051,110.373969 232.798994,109.544068 C230.940207,108.0135 223.154993,97.5371245 221.711676,95.6044424 C220.599263,94.2687643 219.212091,94.638844 218.650484,95.0572477 C209.041879,109.248897 184.389855,159.257121 117.689394,160 C49.4101246,159.086421 25.5975404,108.120643 16.3515805,95.0572477 C15.7815192,94.6733651 14.3196899,94.1399601 13.0752004,95.8653749 C9.56587037,100.562661 3.95734481,108.02381 2.20136173,109.544068 C1.12756981,110.154842 -0.186239945,109.544068 0.0219604699,108.15873 C0.915485777,105.330721 3.37158188,94.6939686 6.06929891,85.3046422 Z" id="Path-34-Copy-3" transform="translate(117.500000, 119.562842) scale(-1, 1) translate(-117.500000, -119.562842) "></path>
            </g>
        </g>
    </g>
</svg>
